img/svg/appstore.svg

<svg width="24" height="24" viewBox="0 0 24 24" fill="none" xmlns="http://www.w3.org/2000/svg">
<path d="M15.6019 3.84601C14.7295 4.85364 13.3335 5.64839 11.9376 5.53485C11.7631 4.17243 12.4465 2.72485 13.2463 1.83076C14.1187 0.794748 15.6455 0.0567677 16.8815 0C17.0269 1.41919 16.4598 2.81 15.6019 3.84601ZM16.867 5.8045C14.8458 5.69096 13.1154 6.92566 12.1557 6.92566C11.1814 6.92566 9.71278 5.86127 8.11327 5.88965C6.03389 5.91803 4.09993 7.06758 3.03843 8.89834C0.857267 12.5599 2.47133 17.9812 4.57978 20.9615C5.6122 22.4374 6.84819 24.0553 8.47679 23.9985C10.0181 23.9418 10.6289 23.0193 12.4901 23.0193C14.3659 23.0193 14.904 23.9985 16.5326 23.9702C18.2193 23.9418 19.2808 22.4942 20.3132 21.0182C21.4911 19.3436 21.9709 17.7115 22 17.6264C21.9709 17.598 18.7428 16.3917 18.7137 12.7585C18.6846 9.72147 21.2584 8.27389 21.3747 8.18874C19.9206 6.08834 17.6522 5.86127 16.867 5.8045Z" fill="white"/>
</svg>

<svg width="24" height="24" fill="none" xmlns="http://www.w3.org/2000/svg"><path d="M15.602 3.846c-.873 1.008-2.268 1.802-3.664 1.689-.175-1.363.508-2.81 1.308-3.704C14.12.795 15.646.057 16.881 0c.146 1.42-.421 2.81-1.28 3.846zm1.265 1.958c-2.021-.113-3.752 1.122-4.711 1.122-.975 0-2.443-1.065-4.043-1.036-2.08.028-4.013 1.178-5.075 3.008-2.18 3.662-.567 9.083 1.542 12.064 1.032 1.475 2.268 3.093 3.897 3.037 1.541-.057 2.152-.98 4.013-.98 1.876 0 2.414.98 4.043.951 1.686-.028 2.748-1.476 3.78-2.952 1.178-1.674 1.658-3.306 1.687-3.392-.03-.028-3.257-1.234-3.286-4.868-.03-3.037 2.544-4.484 2.66-4.57-1.453-2.1-3.722-2.327-4.507-2.384z" fill="#fff"/></svg>
